Papirus/32x32/mimetypes/application-x.allegorithmic.spp.svg

<svg width="32" height="32" version="1.1" xmlns="http://www.w3.org/2000/svg">
 <path d="m7.25 5c-0.6925 0-1.25 0.5575-1.25 1.25v22.5c0 0.692 0.5575 1.25 1.25 1.25h17.5c0.692 0 1.25-0.558 1.25-1.25v-15.75l-8-8z" style="opacity:.2"/>
 <path d="m7.25 4c-0.6925 0-1.25 0.5575-1.25 1.25v22.5c0 0.692 0.5575 1.25 1.25 1.25h17.5c0.692 0 1.25-0.558 1.25-1.25v-15.75l-6-2-2-6z" style="fill:#e4e4e4"/>
 <path d="m26 13-8-8v6.75c0 0.693 0.558 1.25 1.25 1.25z" style="opacity:.2"/>
 <path d="m26 12-8-8v6.75c0 0.693 0.558 1.25 1.25 1.25z" style="fill:#fafafa"/>
 <path d="M 7.25,4 C 6.5575,4 6,4.5575 6,5.25 v 1 C 6,5.5575 6.5575,5 7.25,5 H 18 V 4 Z" style="fill:#ffffff;opacity:.2"/>
 <path d="m16 13.999975-6 3v3l8.399997 2.799987-2.399997 1.2-3-1.499981v-0.499993l-3-1.035704v3.035678l6 3.000038 6-3.000038v-3l-8.399964-2.799874 2.399964-1.2 3 1.500019v0.750047l3 1.035704v-3.28577z" style="fill:#0d0000;opacity:.1"/>
 <path d="m16 12.99978-6 3v3l8.399997 2.799987-2.399997 1.2-3-1.499981v-0.750009l-3-1.035704v3.285694l6 3.000038 6-3.000038v-3l-8.399964-2.799874 2.399964-1.2 3 1.500019v0.750161l3 1.035704v-3.285884z" style="fill:#e2222f"/>
</svg>

<svg xmlns="http://www.w3.org/2000/svg" width="32" height="32" version="1.1">
 <path style="opacity:0.2" d="M 7.25,5 C 6.5575,5 6,5.5575 6,6.25 V 28.75 C 6,29.442 6.5575,30 7.25,30 H 24.75 C 25.442,30 26,29.442 26,28.75 V 13 L 18,5 Z"/>
 <path style="fill:#e4e4e4" d="M 7.25,4 C 6.5575,4 6,4.5575 6,5.25 V 27.75 C 6,28.442 6.5575,29 7.25,29 H 24.75 C 25.442,29 26,28.442 26,27.75 V 12 L 20,10 18,4 Z"/>
 <path style="opacity:0.2" d="M 26,13 18,5 V 11.75 C 18,12.443 18.558,13 19.25,13 Z"/>
 <path style="fill:#fafafa" d="M 26,12 18,4 V 10.75 C 18,11.443 18.558,12 19.25,12 Z"/>
 <path style="opacity:0.2;fill:#ffffff" d="M 7.25 4 C 6.5575 4 6 4.5575 6 5.25 L 6 6.25 C 6 5.5575 6.5575 5 7.25 5 L 18 5 L 18 4 L 7.25 4 z"/>
 <path style="opacity:0.2" d="M 16,14 10,17 V 20 L 18.4,22.8 16,24 13,22.5 V 21.75 L 10,20.714 V 24 L 16,27 22,24 V 21 L 13.6,18.2 16,17 19,18.5 V 19.25 L 22,20.286 V 17 Z"/>
 <path style="fill:#e2222f" d="M 16,13 10,16 V 19 L 18.4,21.8 16,23 13,21.5 V 20.75 L 10,19.714 V 23 L 16,26 22,23 V 20 L 13.6,17.2 16,16 19,17.5 V 18.25 L 22,19.286 V 16 Z"/>
</svg>
